assets/phone.svg

<svg fill="none" height="24" viewBox="0 0 24 24" width="24" xmlns="http://www.w3.org/2000/svg"><path d="m19.4401 12.9999c-.22 0-.45-.07-.67-.12-.4455-.0982-.8833-.2285-1.31-.39-.4639-.1688-.9739-.16-1.4317.0246s-.8312.532-1.0483.9754l-.22.45c-.974-.5419-1.869-1.2148-2.66-2-.7852-.791-1.4582-1.686-2-2.66003l.42-.28c.4434-.21709.7908-.59047.9754-1.04831s.1934-.96778.0246-1.43169c-.1588-.42758-.2891-.8652-.39-1.31-.05-.22-.09-.45-.12-.68-.1214-.70438-.4904-1.34226-1.04038-1.79876-.55-.45651-1.24492-.70163-1.95962-.69124h-3c-.43097-.00405-.85775.08481-1.25129.26053s-.7446.43416-1.02928.75775-.49629.70471-.62044 1.11743-.15791.84735-.09899 1.27429c.53274 4.18938 2.44603 8.08183 5.43765 11.06263 2.99165 2.9808 6.89105 4.8799 11.08235 5.3974h.38c.7374.001 1.4494-.2695 2-.76.3164-.283.5691-.6299.7415-1.0177.1723-.3879.2605-.8079.2585-1.2323v-3c-.0122-.6946-.2652-1.3635-.7157-1.8924-.4504-.5289-1.0705-.885-1.7543-1.0076zm.5 6c-.0002.142-.0306.2823-.0892.4116s-.1441.2447-.2508.3384c-.1114.097-.242.1694-.3833.2125-.1413.043-.2901.0558-.4367.0375-3.7451-.4802-7.2238-2.1935-9.88728-4.8697-2.66352-2.6762-4.36031-6.16299-4.82272-9.91033-.01591-.14648-.00197-.29467.041-.43561s.11407-.2717.209-.38439c.09371-.10667.20906-.19216.33838-.25078.12932-.05863.26964-.08904.41162-.08922h3c.23255-.00518.45962.07088.64214.21507s.30907.3475.35786.57493c.04.27333.09.54333.15.81.11552.52714.26926 1.04518.46 1.55l-1.4.65c-.1197.05492-.22738.13294-.31684.22959-.08947.09665-.15896.21002-.20449.3336s-.0662.25494-.06082.38653c.00537.13159.03669.26082.09215.38028 1.4392 3.08273 3.9172 5.56083 7 7.00003.2435.1.5165.1.76 0 .1247-.0446.2393-.1136.3372-.2028.0978-.0893.177-.1971.2328-.3172l.62-1.4c.517.1848 1.0446.3385 1.58.46.2667.06.5367.11.81.15.2274.0488.4307.1753.5749.3578s.2203.4096.2151.6422z" fill="#e9e8eb"/></svg>

<svg width="24" height="24" viewBox="0 0 24 24" fill="none" xmlns="http://www.w3.org/2000/svg">
<path d="M19.4401 12.9999C19.2201 12.9999 18.9901 12.9299 18.7701 12.8799C18.3246 12.7817 17.8868 12.6514 17.4601 12.4899C16.9962 12.3211 16.4862 12.3299 16.0284 12.5145C15.5706 12.6991 15.1972 13.0465 14.9801 13.4899L14.7601 13.9399C13.7861 13.398 12.8911 12.7251 12.1001 11.9399C11.3149 11.1489 10.6419 10.2539 10.1001 9.27987L10.5201 8.99987C10.9635 8.78278 11.3109 8.4094 11.4955 7.95156C11.6801 7.49372 11.6889 6.98378 11.5201 6.51987C11.3613 6.09229 11.231 5.65467 11.1301 5.20987C11.0801 4.98987 11.0401 4.75987 11.0101 4.52987C10.8887 3.82549 10.5197 3.18761 9.96972 2.73111C9.41972 2.2746 8.7248 2.02948 8.0101 2.03987H5.0101C4.57913 2.03582 4.15235 2.12468 3.75881 2.3004C3.36527 2.47612 3.01421 2.73456 2.72953 3.05815C2.44485 3.38174 2.23324 3.76286 2.10909 4.17558C1.98494 4.5883 1.95118 5.02293 2.0101 5.44987C2.54284 9.63925 4.45613 13.5317 7.44775 16.5125C10.4394 19.4933 14.3388 21.3924 18.5301 21.9099H18.9101C19.6475 21.9109 20.3595 21.6404 20.9101 21.1499C21.2265 20.8669 21.4792 20.52 21.6516 20.1322C21.8239 19.7443 21.9121 19.3243 21.9101 18.8999V15.8999C21.8979 15.2053 21.6449 14.5364 21.1944 14.0075C20.744 13.4786 20.1239 13.1225 19.4401 12.9999ZM19.9401 18.9999C19.9399 19.1419 19.9095 19.2822 19.8509 19.4115C19.7923 19.5408 19.7068 19.6562 19.6001 19.7499C19.4887 19.8469 19.3581 19.9193 19.2168 19.9624C19.0755 20.0054 18.9267 20.0182 18.7801 19.9999C15.035 19.5197 11.5563 17.8064 8.89282 15.1302C6.2293 12.454 4.53251 8.96721 4.0701 5.21987C4.05419 5.07339 4.06813 4.9252 4.1111 4.78426C4.15407 4.64332 4.22517 4.51256 4.3201 4.39987C4.41381 4.2932 4.52916 4.20771 4.65848 4.14909C4.7878 4.09046 4.92812 4.06005 5.0701 4.05987H8.0701C8.30265 4.05469 8.52972 4.13075 8.71224 4.27494C8.89476 4.41913 9.02131 4.62244 9.0701 4.84987C9.1101 5.1232 9.1601 5.3932 9.2201 5.65987C9.33562 6.18701 9.48936 6.70505 9.6801 7.20987L8.2801 7.85987C8.1604 7.91479 8.05272 7.99281 7.96326 8.08946C7.87379 8.18611 7.8043 8.29948 7.75877 8.42306C7.71324 8.54664 7.69257 8.678 7.69795 8.80959C7.70332 8.94118 7.73464 9.07041 7.7901 9.18987C9.2293 12.2726 11.7073 14.7507 14.7901 16.1899C15.0336 16.2899 15.3066 16.2899 15.5501 16.1899C15.6748 16.1453 15.7894 16.0763 15.8873 15.9871C15.9851 15.8978 16.0643 15.79 16.1201 15.6699L16.7401 14.2699C17.2571 14.4547 17.7847 14.6084 18.3201 14.7299C18.5868 14.7899 18.8568 14.8399 19.1301 14.8799C19.3575 14.9287 19.5608 15.0552 19.705 15.2377C19.8492 15.4202 19.9253 15.6473 19.9201 15.8799L19.9401 18.9999Z" fill="#E9E8EB"/>
</svg>
